svgs/duotone/square-t.svg

<svg xmlns="http://www.w3.org/2000/svg" viewBox="0 0 448 512"><!--! Font Awesome Pro 6.6.0 by @fontawesome - https://fontawesome.com License - https://fontawesome.com/license (Commercial License) Copyright 2024 Fonticons, Inc. --><path class="fa-secondary" style="fill:var(--fa-secondary-color,inherit);opacity:var(--fa-secondary-opacity,.4);" d="M0 96L0 416c0 35.3 28.7 64 64 64l320 0c35.3 0 64-28.7 64-64l0-320c0-35.3-28.7-64-64-64L64 32C28.7 32 0 60.7 0 96zm96 72c0-13.3 10.7-24 24-24l104 0 104 0c13.3 0 24 10.7 24 24s-10.7 24-24 24l-80 0 0 168c0 13.3-10.7 24-24 24s-24-10.7-24-24l0-168-80 0c-13.3 0-24-10.7-24-24z"/><path class="fa-primary" style="fill:var(--fa-primary-color,inherit);opacity:var(--fa-primary-opacity,1);" d="M96 168c0-13.3 10.7-24 24-24l104 0 104 0c13.3 0 24 10.7 24 24s-10.7 24-24 24l-80 0 0 168c0 13.3-10.7 24-24 24s-24-10.7-24-24l0-168-80 0c-13.3 0-24-10.7-24-24z"/></svg>

<svg xmlns="http://www.w3.org/2000/svg" viewBox="0 0 448 512"><!--! Font Awesome Pro 6.4.2 by @fontawesome - https://fontawesome.com License - https://fontawesome.com/license (Commercial License) Copyright 2023 Fonticons, Inc. --><path class="fa-primary" style="fill:var(--fa-primary-color,inherit);opacity:var(--fa-primary-opacity,1);" d="M96 168c0-13.3 10.7-24 24-24H224 328c13.3 0 24 10.7 24 24s-10.7 24-24 24H248V360c0 13.3-10.7 24-24 24s-24-10.7-24-24V192H120c-13.3 0-24-10.7-24-24z"/><path class="fa-secondary" style="fill:var(--fa-secondary-color,inherit);opacity:var(--fa-secondary-opacity,.4);" d="M64 32C28.7 32 0 60.7 0 96V416c0 35.3 28.7 64 64 64H384c35.3 0 64-28.7 64-64V96c0-35.3-28.7-64-64-64H64zm56 112H224 328c13.3 0 24 10.7 24 24s-10.7 24-24 24H248V360c0 13.3-10.7 24-24 24s-24-10.7-24-24V192H120c-13.3 0-24-10.7-24-24s10.7-24 24-24z"/></svg>
